svg/SJJB-OpenStreetMapIcons/tourist/map.svg

<?xml version="1.0" encoding="UTF-8" standalone="no"?>
<!-- Created with Inkscape (http://www.inkscape.org/) -->

<svg
   xmlns:dc="http://purl.org/dc/elements/1.1/"
   xmlns:cc="http://creativecommons.org/ns#"
   xmlns:rdf="http://www.w3.org/1999/02/22-rdf-syntax-ns#"
   xmlns:svg="http://www.w3.org/2000/svg"
   xmlns="http://www.w3.org/2000/svg"
   xmlns:sodipodi="http://sodipodi.sourceforge.net/DTD/sodipodi-0.dtd"
   xmlns:inkscape="http://www.inkscape.org/namespaces/inkscape"
   version="1.0"
   width="580"
   height="580"
   id="svg2"
   sodipodi:version="0.32"
   inkscape:version="0.48.0 r9654"
   sodipodi:docname="tourist_map.svg"
   inkscape:output_extension="org.inkscape.output.svg.inkscape">
  <metadata
     id="metadata2975">
    <rdf:RDF>
      <cc:Work
         rdf:about="">
        <dc:format>image/svg+xml</dc:format>
        <dc:type
           rdf:resource="http://purl.org/dc/dcmitype/StillImage" />
        <cc:license
           rdf:resource="http://web.resource.org/cc/PublicDomain" />
        <dc:language>en</dc:language>
        <dc:title />
      </cc:Work>
    </rdf:RDF>
  </metadata>
  <sodipodi:namedview
     inkscape:window-height="947"
     inkscape:window-width="1229"
     inkscape:pageshadow="2"
     inkscape:pageopacity="0.0"
     guidetolerance="10.0"
     gridtolerance="10.0"
     objecttolerance="10.0"
     borderopacity="1.0"
     bordercolor="#666666"
     pagecolor="#ffffff"
     id="base"
     inkscape:zoom="1.1818168"
     inkscape:cx="281.53649"
     inkscape:cy="298.58139"
     inkscape:window-x="689"
     inkscape:window-y="27"
     inkscape:current-layer="svg2"
     showgrid="false"
     inkscape:window-maximized="0" />
  <defs
     id="defs4">
    <marker
       inkscape:stockid="Arrow1Mend"
       orient="auto"
       refY="0.0"
       refX="0.0"
       id="Arrow1Mend"
       style="overflow:visible;">
      <path
         id="path4055"
         d="M 0.0,0.0 L 5.0,-5.0 L -12.5,0.0 L 5.0,5.0 L 0.0,0.0 z "
         style="fill-rule:evenodd;stroke:#000000;stroke-width:1.0pt;marker-start:none;"
         transform="scale(0.4) rotate(180) translate(10,0)" />
    </marker>
    <marker
       inkscape:stockid="Arrow2Lend"
       orient="auto"
       refY="0.0"
       refX="0.0"
       id="Arrow2Lend"
       style="overflow:visible;">
      <path
         id="path4067"
         style="font-size:12.0;fill-rule:evenodd;stroke-width:0.62500000;stroke-linejoin:round;"
         d="M 8.7185878,4.0337352 L -2.2072895,0.016013256 L 8.7185884,-4.0017078 C 6.9730900,-1.6296469 6.9831476,1.6157441 8.7185878,4.0337352 z "
         transform="scale(1.1) rotate(180) translate(1,0)" />
    </marker>
    <inkscape:perspective
       sodipodi:type="inkscape:persp3d"
       inkscape:vp_x="0 : 290 : 1"
       inkscape:vp_y="0 : 1000 : 0"
       inkscape:vp_z="580 : 290 : 1"
       inkscape:persp3d-origin="290 : 193.33333 : 1"
       id="perspective2441" />
    <inkscape:perspective
       id="perspective3452"
       inkscape:persp3d-origin="30 : 20 : 1"
       inkscape:vp_z="60 : 30 : 1"
       inkscape:vp_y="0 : 1000 : 0"
       inkscape:vp_x="0 : 30 : 1"
       sodipodi:type="inkscape:persp3d" />
    <symbol
       viewBox="244.5 110 489 219.9"
       id="symbol-university">
      <path
         id="path4460"
         d="M79,43l57,119c0,0,21-96,104-96s124,106,124,106l43-133l82-17L0,17L79,43z" />
      <path
         id="path4462"
         d="M94,176l-21,39"
         stroke-width="20"
         stroke="#000000"
         fill="none" />
      <path
         id="path4464"
         d="M300,19c0,10.5-22.6,19-50.5,19S199,29.5,199,19s22.6-19,50.5-19S300,8.5,300,19z" />
      <path
         id="path4466"
         d="M112,216l-16-38L64,88c0,0-9-8-4-35s16-24,16-24"
         stroke-width="20"
         stroke="#000000"
         ill="none" />
    </symbol>
    <inkscape:perspective
       id="perspective4471"
       inkscape:persp3d-origin="372.04724 : 350.78739 : 1"
       inkscape:vp_z="744.09448 : 526.18109 : 1"
       inkscape:vp_y="0 : 1000 : 0"
       inkscape:vp_x="0 : 526.18109 : 1"
       sodipodi:type="inkscape:persp3d" />
    <inkscape:perspective
       id="perspective4668"
       inkscape:persp3d-origin="6 : 4 : 1"
       inkscape:vp_z="12 : 6 : 1"
       inkscape:vp_y="0 : 1000 : 0"
       inkscape:vp_x="0 : 6 : 1"
       sodipodi:type="inkscape:persp3d" />
  </defs>
  <g
     id="g1327">
    <path
       d="M 66.275,1.768 C 24.94,1.768 1.704,23.139 1.704,66.804 L 1.704,516.927 C 1.704,557.771 22.599,579.156 63.896,579.156 L 515.92,579.156 C 557.227,579.156 578.149,558.841 578.149,516.927 L 578.149,66.804 C 578.149,24.203 557.227,1.768 514.628,1.768 C 514.624,1.768 66.133,1.625 66.275,1.768 z "
       style="fill:#111;stroke:#eee;stroke-width:3.40799999"
       id="path1329" />
  </g>
  <g
     id="layer3"
     inkscape:label="Layout"
     style="display:none;stroke:#757575;stroke-opacity:1"
     transform="matrix(48.14969,0,0,48.14969,-536.27327,-33.306752)">
    <rect
       style="fill:none;stroke:#757575;stroke-width:0.10000000000000001;stroke-miterlimit:4;stroke-dasharray:none;stroke-opacity:1;display:inline"
       id="rect4134"
       width="10"
       height="10"
       x="1"
       y="1" />
    <rect
       style="fill:none;stroke:#757575;stroke-width:0.10000000000000001;stroke-miterlimit:4;stroke-dasharray:none;stroke-opacity:1;display:inline"
       id="rect4136"
       width="8"
       height="8"
       x="2"
       y="2" />
  </g>
  <path
     style="fill:#ffffff;fill-opacity:1;fill-rule:evenodd;stroke:#ffffff;stroke-width:20.07780457000000141;stroke-linecap:round;stroke-linejoin:round;stroke-miterlimit:4;stroke-opacity:1;stroke-dasharray:none;opacity:1"
     d="m 484.34494,60.594226 20.38592,0 0,474.481774 -20.17303,0 -0.21289,-474.481774 z"
     id="path2459-9"
     sodipodi:nodetypes="ccccc"
     inkscape:connector-curvature="0" />
  <path
     style="fill:#ffffff;fill-opacity:1;fill-rule:evenodd;stroke:#ffffff;stroke-width:20;stroke-linecap:round;stroke-linejoin:round;stroke-miterlimit:4;stroke-opacity:1;stroke-dasharray:none;opacity:1"
     d="m 77.26914,62.594226 20.38591,0 0,470.811534 -20.17301,0 -0.2129,-470.811534 z"
     id="path2459-9-2"
     sodipodi:nodetypes="ccccc"
     inkscape:connector-curvature="0" />
  <g
     id="g4862"
     transform="matrix(2.7388649,0,0,1.0836106,-503.97195,-21.127363)" />
  <g
     style="font-size:40px;font-style:normal;font-weight:normal;line-height:125%;letter-spacing:0px;word-spacing:0px;fill-opacity:1;stroke:none;font-family:Bitstream Vera Sans"
     id="text4855"
     transform="matrix(1.8049556,0,0,1.4255971,-168.99655,587.82601)" />
  <path
     style="opacity:0.01;fill:#ffffff;fill-opacity:1;stroke:none"
     d="M 500.375,37.0625 C 357.22372,38.349307 214.03916,35.918642 70.90625,38.375 55.944617,42.284431 49.444769,59.859297 51.875,74 53.43233,176.81248 50.454173,279.69554 53.46875,382.46875 58.216363,397.11054 75.928168,402.88464 90,400 c 140.03878,-0.47958 280.10246,0.96882 420.125,-0.8125 15.27991,-3.97416 22.09996,-22.04385 18.9375,-36.46875 -0.54604,-102.2416 1.14023,-204.55393 -0.96875,-306.75 C 525.20182,43.879944 512.29256,36.492491 500.375,37.0625 z"
     id="rect6923"
     inkscape:connector-curvature="0" />
  <path
     style="color:#000000;fill:#ffffff;fill-opacity:1;stroke:none;stroke-width:10;marker:none;visibility:visible;display:inline;overflow:visible;enable-background:accumulate;opacity:0.75"
     d="M 500.375 37.0625 C 357.22372 38.349307 214.03916 35.918642 70.90625 38.375 C 55.944617 42.284431 49.444769 59.859297 51.875 74 C 53.43233 176.81248 50.454173 279.69554 53.46875 382.46875 C 58.216363 397.11054 75.928168 402.88464 90 400 C 230.03878 399.52042 370.10246 400.96882 510.125 399.1875 C 525.40491 395.21334 532.22496 377.14365 529.0625 362.71875 C 528.51646 260.47715 530.20273 158.16482 528.09375 55.96875 C 525.20182 43.879944 512.29256 36.492491 500.375 37.0625 z M 287.59375 52.34375 C 289.02184 52.32735 290.43342 52.713726 291.59375 53.5625 C 315.86999 86.284425 337.86465 120.73101 361.53125 153.9375 C 366.63137 157.78263 367.3051 168.37389 359.78125 169.75 C 342.89333 165.36326 327.10912 157.30434 310.9375 150.75 C 310.90841 172.13107 311.43675 193.7902 309 214.96875 C 302.47339 221.35664 292.28417 218.06777 284.09375 218.5 C 276.28658 217.69411 265.87584 221.75054 260.21875 214.28125 C 258.23318 193.36891 260.3905 172.16839 260.4375 151.15625 C 246.89696 156.71566 232.97881 161.54816 219.53125 167.40625 C 214.36781 172.19825 203.71728 168.03917 205.5 160.46875 C 225.54457 130.90726 247.60685 102.53074 268.5 73.46875 C 275.0268 66.833167 277.87889 56.239892 286.96875 52.375 C 287.17181 52.356128 287.38974 52.346093 287.59375 52.34375 z M 342.09375 235.21875 C 347.24505 234.99889 352.74491 237.9566 352.71875 243.6875 C 352.74433 288.54114 353.55995 333.47718 352.375 378.34375 C 348.57465 386.5902 337.57439 384.80519 330.4375 382.8125 C 306.51389 359.58452 284.079 334.6239 260.8125 310.65625 C 260.71198 331.88963 261.50191 353.1543 260.4375 374.375 C 261.3688 381.43423 252.88732 383.1867 247.53125 382.5 C 239.62425 380.96825 231.37397 384.25425 223.75 381.46875 C 216.87471 379.04849 219.27296 370.48309 218.46875 364.875 C 219.14265 324.64701 217.64871 284.40383 219.03125 244.1875 C 217.51021 237.4838 225.12339 235.3225 230.28125 235.3125 C 234.35166 235.19242 238.35094 235.83157 242.3125 236.46875 C 266.22627 258.01686 287.72201 282.44441 310.59375 305.21875 C 310.60785 291.37097 310.48415 277.50408 310.53125 263.65625 C 311.74536 255.13073 308.42344 245.63597 313 237.78125 C 321.16276 233.15528 331.01338 236.79839 339.90625 235.5 C 340.60989 235.3376 341.35785 235.25016 342.09375 235.21875 z "
     id="rect3018-6-8" />
</svg>

<svg xmlns="http://www.w3.org/2000/svg" viewBox="0 0 580 580"><path d="m66.28 1.768c-41.34 0-64.57 21.371-64.57 65.04v450.12c0 40.844 20.895 62.23 62.19 62.23h452.02c41.31 0 62.23-20.315 62.23-62.23v-450.12c0-42.601-20.922-65.04-63.52-65.04-.004 0-448.5-.143-448.35 0z" fill="#111" stroke="#eee" stroke-width="3.408"/><g fill="#fff"><g fill-rule="evenodd" stroke="#fff" stroke-linejoin="round" stroke-linecap="round"><path d="m484.34 60.59h20.386v474.48h-20.17l-.213-474.48z" stroke-width="20.08"/><path d="m77.27 62.59h20.386v470.81h-20.17l-.213-470.81z" stroke-width="20"/></g><path d="m500.37 37.06c-143.15 1.287-286.34-1.144-429.47 1.313-14.962 3.909-21.461 21.484-19.03 35.625 1.557 102.81-1.421 205.7 1.594 308.47 4.748 14.642 22.459 20.416 36.531 17.531 140.04-.48 280.1.969 420.12-.813 15.28-3.974 22.1-22.04 18.938-36.469-.546-102.24 1.14-204.55-.969-306.75-2.892-12.09-15.801-19.476-27.719-18.906" opacity=".001"/><path d="m500.37 37.06c-143.15 1.287-286.34-1.144-429.47 1.313-14.962 3.909-21.461 21.484-19.03 35.625 1.557 102.81-1.421 205.7 1.594 308.47 4.748 14.642 22.459 20.416 36.531 17.531 140.04-.48 280.1.969 420.12-.813 15.28-3.974 22.1-22.04 18.938-36.469-.546-102.24 1.14-204.55-.969-306.75-2.892-12.09-15.801-19.476-27.719-18.906m-212.78 15.281c1.428-.016 2.84.37 4 1.219 24.276 32.722 46.27 67.17 69.938 100.37 5.1 3.845 5.774 14.436-1.75 15.813-16.888-4.387-32.672-12.446-48.844-19-.029 21.381.499 43.04-1.938 64.22-6.527 6.388-16.716 3.099-24.906 3.531-7.807-.806-18.218 3.251-23.875-4.219-1.986-20.912.172-42.11.219-63.12-13.541 5.559-27.459 10.392-40.906 16.25-5.163 4.792-15.814.633-14.03-6.938 20.04-29.561 42.11-57.938 63-87 6.527-6.636 9.379-17.229 18.469-21.09.203-.019.421-.029.625-.031m54.5 182.87c5.151-.22 10.651 2.738 10.625 8.469.026 44.854.841 89.79-.344 134.66-3.8 8.246-14.801 6.461-21.938 4.469-23.924-23.23-46.36-48.19-69.62-72.16-.101 21.233.689 42.498-.375 63.719.931 7.06-7.55 8.812-12.906 8.125-7.907-1.532-16.16 1.754-23.781-1.031-6.875-2.42-4.477-10.986-5.281-16.594.674-40.23-.82-80.47.563-120.69-1.521-6.704 6.092-8.865 11.25-8.875 4.07-.12 8.07.519 12.03 1.156 23.914 21.548 45.41 45.976 68.28 68.75.014-13.848-.11-27.715-.063-41.563 1.214-8.526-2.108-18.02 2.469-25.875 8.163-4.626 18.01-.983 26.906-2.281.704-.162 1.452-.25 2.188-.281" opacity=".75" color="#000"/></g></svg>
